images/004-instagram.svg

<svg width="20" height="20" viewBox="0 0 20 20" fill="none" xmlns="http://www.w3.org/2000/svg">
<path fill-rule="evenodd" clip-rule="evenodd" d="M6.25 0H13.75C17.2013 0 20 2.79875 20 6.25V13.75C20 17.2013 17.2013 20 13.75 20H6.25C2.79875 20 0 17.2013 0 13.75V6.25C0 2.79875 2.79875 0 6.25 0ZM13.75 18.125C16.1625 18.125 18.125 16.1625 18.125 13.75V6.25C18.125 3.8375 16.1625 1.875 13.75 1.875H6.25C3.8375 1.875 1.875 3.8375 1.875 6.25V13.75C1.875 16.1625 3.8375 18.125 6.25 18.125H13.75Z" fill="#1E2833" style="fill:#1E2833;fill:color(display-p3 0.1176 0.1569 0.2000);fill-opacity:1;"/>
<path fill-rule="evenodd" clip-rule="evenodd" d="M5 10C5 7.23875 7.23875 5 10 5C12.7613 5 15 7.23875 15 10C15 12.7613 12.7613 15 10 15C7.23875 15 5 12.7613 5 10ZM6.875 10C6.875 11.7225 8.2775 13.125 10 13.125C11.7225 13.125 13.125 11.7225 13.125 10C13.125 8.27625 11.7225 6.875 10 6.875C8.2775 6.875 6.875 8.27625 6.875 10Z" fill="#1E2833" style="fill:#1E2833;fill:color(display-p3 0.1176 0.1569 0.2000);fill-opacity:1;"/>
<circle cx="15.3752" cy="4.62499" r="0.66625" fill="#1E2833" style="fill:#1E2833;fill:color(display-p3 0.1176 0.1569 0.2000);fill-opacity:1;"/>
</svg>

<svg xmlns="http://www.w3.org/2000/svg" width="20" height="20" fill="none"><path fill="#1E2833" fill-rule="evenodd" d="M6.25 0h7.5A6.25 6.25 0 0 1 20 6.25v7.5A6.25 6.25 0 0 1 13.75 20h-7.5A6.25 6.25 0 0 1 0 13.75v-7.5A6.25 6.25 0 0 1 6.25 0m7.5 18.125a4.38 4.38 0 0 0 4.375-4.375v-7.5a4.38 4.38 0 0 0-4.375-4.375h-7.5A4.38 4.38 0 0 0 1.875 6.25v7.5a4.38 4.38 0 0 0 4.375 4.375z" clip-rule="evenodd" style="fill:#1e2833;fill:color(display-p3 .1176 .1569 .2);fill-opacity:1"/><path fill="#1E2833" fill-rule="evenodd" d="M5 10a5 5 0 1 1 10 0 5 5 0 0 1-10 0m1.875 0A3.13 3.13 0 0 0 10 13.125 3.13 3.13 0 0 0 13.125 10 3.13 3.13 0 0 0 10 6.875 3.13 3.13 0 0 0 6.875 10" clip-rule="evenodd" style="fill:#1e2833;fill:color(display-p3 .1176 .1569 .2);fill-opacity:1"/><circle cx="15.375" cy="4.625" r=".666" fill="#1E2833" style="fill:#1e2833;fill:color(display-p3 .1176 .1569 .2);fill-opacity:1"/></svg>
